X: 1739
T: My Father Was A Dutchman
B: australian traditional tunes wiki
M:3/4
L:1/8
R: Waltz
Q: 1/4=100
K:G
V:1 
|:D2|"G"G3F GA|B2G2E2|D2E2B,2|D2C2B,2|
"D7"A3G AB|c3B AG|1D2E2D2|"G"B,4:|2D2E2F2|"G"G4 DG||
|"G"B4 DG|B4 DG|B2c2d2|e2d2B2|"D7"A4 DF|A4 DF|"(Am)"A2B2c2|"D7"e2d2c2|
"G"B4 DG|B4 DG|B2c2d2|e2d2B2|"D7"A3G AB|c3B AG|D2E2F2|"G"G4||
% abcbook-tune_id 6342d53a09bced0d3bbe4ce0


% abcbook-boost 0
% abcbook-tablature 
% abcbook-transpose 
% abcbook-lastupdated 1665324381154
% abcbook-soundfonts 
% abcbook-repeats 1
% NFF Book 2019
% Bush Traditions recording played by Ray Mulligan

